X: 2
T: reel de Beloeil
C: Edouard Picard
S: Handout at Roaring Jelly practice 2016-11
R: reel
Z: 2008 John Chambers <jc:trillian.mit.edu>
M: C|
L: 1/8
K: D
|:\
"D"D3D "(A7)"DFEG | "D"FDDD F2DF | "D"AdcB "(A7)"AGFE |\
[1,3 "D"DFAd "A7"BGEC :|[2 "A7"DdAF "D"D2A,2 :|[4 "A7"DdAF "D"D2G2 |]
|:\
"D"Fddd Fddd | "G"Gddd "(Em)"Gddd | "A7"Aeee Aeec |\
[1,3 "D"dfed "A7"cBAG :|[2 "D"df"A7"ec "D"dBAG :|[4 "D"df"A7"ec "D"d4 |]
